icons/ui_settings_fill.svg

<svg width="48" height="48" viewBox="0 0 48 48" fill="none" xmlns="http://www.w3.org/2000/svg">
<path fill-rule="evenodd" clip-rule="evenodd" d="M20.0001 6H28.0001V6.7335C28.6179 13.6002 30.662 14.8428 36.8981 11.9345L37.5885 11.5359L41.5885 18.4641L41.1985 18.6893C35.2937 22.7886 35.2333 25.1979 41.1318 29.2722L41.5885 29.5359L41.5689 29.5699L37.5885 36.4641L36.8271 36.0245C30.4716 33.1184 28.5347 34.548 28.0271 42.0249L28.0001 41.6958V42H20.0001V40.8335C19.3297 34.2078 17.1809 33.1931 10.8459 36.2134L10.4116 36.4641L6.41162 29.5359L7.44679 28.9383C12.6856 25.1559 12.6838 22.7927 7.34432 19.0026L6.41162 18.4641L10.4116 11.5359L10.6347 11.6647C17.1052 14.7619 19.3341 13.8313 20.0001 7.20194V6ZM29.0001 24C29.0001 26.7614 26.7615 29 24.0001 29C21.2387 29 19.0001 26.7614 19.0001 24C19.0001 21.2386 21.2387 19 24.0001 19C26.7615 19 29.0001 21.2386 29.0001 24ZM32.0001 24C32.0001 28.4183 28.4184 32 24.0001 32C19.5818 32 16.0001 28.4183 16.0001 24C16.0001 19.5817 19.5818 16 24.0001 16C28.4184 16 32.0001 19.5817 32.0001 24ZM34.0001 24C34.0001 29.5228 29.523 34 24.0001 34C18.4773 34 14.0001 29.5228 14.0001 24C14.0001 18.4772 18.4773 14 24.0001 14C29.523 14 34.0001 18.4772 34.0001 24Z" fill="black"/>
</svg>

<svg
  xmlns="http://www.w3.org/2000/svg"
  width="24"
  height="24"
  viewBox="0 0 24 24"
  fill="none"
  stroke="currentColor"
  stroke-width="2"
  stroke-linecap="round"
  stroke-linejoin="round"
>
  <path
    fill-rule="evenodd"
    d="M20 6h8v.734c.618 6.866 2.662 8.109 8.898 5.2l.69-.398 4 6.928-.39.225c-5.904 4.1-5.965 6.509-.066 10.583l.457.264-.02.034-3.98 6.894-.762-.44c-6.355-2.906-8.292-1.476-8.8 6L28 41.697V42h-8v-1.166c-.67-6.626-2.82-7.64-9.154-4.62l-.434.25-4-6.928 1.035-.598c5.239-3.782 5.237-6.145-.103-9.935l-.932-.539 4-6.928.223.129c6.47 3.097 8.7 2.166 9.365-4.463zm9 18a5 5 0 1 1-10 0 5 5 0 0 1 10 0m3 0a8 8 0 1 1-16 0 8 8 0 0 1 16 0m2 0c0 5.523-4.477 10-10 10s-10-4.477-10-10 4.477-10 10-10 10 4.477 10 10"
    clip-rule="evenodd"
  />
</svg>
